X:1
T:Blütenmond
T:Gustav Graben-Hoffmann
T:Delia Helena
T:Blütenmond
T:CPDL   —   Creative Commons Attribution Non Commercial 3.0
C:Gustav Graben-Hoffmann
Z:Delia Helena
Z:CPDL   —   Creative Commons Attribution Non Commercial 3.0
%%score [ ( 1 2 ) ( 3 4 ) ]
L:1/8
Q:1/4=100
M:6/8
K:A
V:1 treble nm="Sopran"
V:2 treble 
V:3 treble nm="Alt"
V:4 treble 
V:1
!mf!"^Etwas lebhaft"!<(! cB!<)!A | !^!e3!mf!!>(! cB!>)!A | !^!e3!p! cBA |"^cresc." dcB dcB | %4
w: 1.   Lied- chen er-|kling, schwing dich und|bring Blu- men- hauch,|Mai- en- luft, blü- hend in|
w: 2.   Lied- chen er-|kling, schwing dich und|sing; Ster- ne an|Ster- ne glüh'n, leuch- ten- des|
w: 3.  Glock' und Schal-|mei, tau- sen- der-|lei Sang und Klang|ist er- wacht, Früh- ling ward's|
 ed!breath!c"^cresc." edc |!f! f[Q:1/4=80]"^rit."dc |[Q:1/4=100]"^a tempo" BBB |{^d} c3-!>(! c2 B | %8
w: Wor- tes- duft, Blu- men- hauch,|Mai- en- luft,|blü- hend in|Wor- * tes-|
w: Im- mer- grün, Ster- ne an|Ster- ne glüh'n,|leuch- ten- des|Im- * mer-|
w: ü- ber Nacht, Sang und Klang|ist er- wacht,|Früh- ling ward's|ü- * ber|
"^" B2!>)! z |!p![Q:1/4=80]"^Langsam" =dcB | !breath!e3[Q:1/4=100]"^a tempo"!f! dcB | %11
w: duft!|Lied- chen er-|kling! Lied- chen er-|
w: grün,|||
w: Nacht,|||
 !^!A2 !fermata!z |] %12
w: kling!|
w: |
w: |
V:2
 AGA | G3 AGA | G3 AGA | GAG GAG | AGA AGA | AAA | AAA | A3- A2 A | G2 x | GAG | A3 AAG | A2 x |] %12
V:3
!mf!!<(! EE!<)!E | !^!E3!mf!!>(! EE!>)!E | !^!E3!p! EEE |"^cresc." EEE EEE | %4
 EE!breath!E"^cresc." EEE |!f! DFF | FFF | F3-!>(! F2 F | E2!>)! z |!p! EEE | %10
 !breath!E3!f! FE!<(!D!<)! | !^!C2 !fermata!z |] %12
V:4
 A,DC | B,3 A,DC | B,3 A,DC | B,CD B,CD | CB,A, CB,A, | DB,C | DDD | ^D3- D2 D | E2 x | B,CD | %10
 C3 DEE | A,2 x |] %12

